src/section/s3/hand-bg.svg

<svg width="375" height="290" viewBox="0 0 375 290" fill="none" xmlns="http://www.w3.org/2000/svg">
<rect x="375" y="290" width="375" height="290" transform="rotate(-180 375 290)" fill="url(#paint0_linear_58_321)"/>
<path d="M138.503 256.289V265.428C138.503 265.701 138.412 265.792 138.113 265.805C137.801 265.805 136.709 265.818 135.708 265.766C135.903 266.117 136.15 266.715 136.228 267.079C137.541 267.079 138.464 267.066 139.036 266.858C139.595 266.65 139.79 266.26 139.79 265.454V256.289H138.503ZM130.95 258.889V264.843H132.146V258.889H130.95ZM131.457 258.889V260.059H135.162V262.646H131.457V263.829H136.371V258.889H131.457ZM129.676 255.925V257.173H141.35V255.925H129.676ZM142.819 257.316V258.499H154.155V257.316H142.819ZM146.459 260.774V261.957H153.856V260.774H146.459ZM145.094 265.571V266.767H154.389V265.571H145.094ZM149.228 261.333V266.234H150.476V261.333H149.228ZM146.693 255.028C146.147 258.759 145.016 262.997 142.312 265.389C142.559 265.636 142.936 266.091 143.118 266.364C146.069 263.686 147.278 259.292 147.98 255.197L146.693 255.028ZM155.793 257.368V258.564H167.233V257.368H155.793ZM159.147 265.194V266.39H165.478V265.194H159.147ZM158.419 260.904V267.118H159.641V262.1H165.023V267.053H166.31V260.904H158.419ZM160.187 255.028C159.524 258.265 158.133 261.697 155.351 263.595C155.598 263.842 155.988 264.284 156.17 264.57C159.147 262.451 160.629 258.837 161.474 255.275L160.187 255.028ZM177.945 260.748V265.935C177.945 266.104 177.893 266.156 177.711 266.156C177.542 266.156 176.931 266.156 176.346 266.13C176.489 266.416 176.632 266.832 176.684 267.118C177.594 267.118 178.192 267.105 178.595 266.949C178.985 266.78 179.115 266.507 179.115 265.948V260.748H177.945ZM171.757 258.993V261.307H172.888V259.968H179.206V261.307H180.389V258.993H171.757ZM173.07 255.496V259.487H174.175V256.458H177.88V259.487H179.037V255.496H173.07ZM169.183 256.029C169.937 256.51 170.977 257.238 171.471 257.693L172.264 256.77C171.744 256.328 170.691 255.652 169.95 255.21L169.183 256.029ZM168.494 259.669C169.222 260.098 170.223 260.709 170.704 261.112L171.445 260.163C170.938 259.773 169.924 259.188 169.209 258.811L168.494 259.669ZM168.949 266.104L170.054 266.832C170.665 265.649 171.354 264.128 171.874 262.802L170.899 262.074C170.301 263.517 169.508 265.129 168.949 266.104ZM173.551 260.748V261.71H178.361V260.748H173.551ZM172.979 260.748V262.607C172.979 263.764 172.875 265.363 171.978 266.533C172.251 266.663 172.758 267.001 172.966 267.196C173.954 265.909 174.136 263.985 174.136 262.62V260.748H172.979ZM174.006 264.427L174.37 265.376C175.514 265.129 176.996 264.778 178.4 264.44L178.283 263.556C176.71 263.894 175.098 264.232 174.006 264.427ZM174.396 262.971C175.358 263.101 176.593 263.426 177.243 263.712L177.633 262.88C176.97 262.594 175.735 262.308 174.786 262.217L174.396 262.971ZM175.475 257.212V259.539H176.476V257.992H178.491V257.212H175.475ZM181.832 263.491V264.388H187.825V263.491H181.832ZM181.507 257.251V258.174H188.007V257.251H181.507ZM184.224 256.185V265.649H185.342V256.185H184.224ZM181.468 265.597L181.624 266.65C183.301 266.481 185.654 266.234 187.864 265.974L187.851 265.025C185.524 265.259 183.067 265.467 181.468 265.597ZM182.872 261.216H186.746V262.009H182.872V261.216ZM182.872 259.669H186.746V260.449H182.872V259.669ZM181.871 258.863V262.815H187.773V258.863H181.871ZM187.24 255.132C185.849 255.444 183.535 255.678 181.598 255.769C181.715 256.016 181.832 256.406 181.884 256.666C183.834 256.614 186.226 256.406 187.812 256.068L187.24 255.132ZM187.942 258.031V259.162H192.557V258.031H187.942ZM192.063 258.031V258.304C191.946 263.465 191.816 265.324 191.504 265.727C191.387 265.896 191.257 265.935 191.049 265.935C190.802 265.935 190.256 265.922 189.658 265.87C189.853 266.208 189.983 266.715 190.009 267.053C190.62 267.079 191.231 267.079 191.621 267.027C192.024 266.962 192.31 266.845 192.557 266.455C192.986 265.896 193.103 264.037 193.246 258.603C193.246 258.46 193.246 258.031 193.246 258.031H192.063ZM189.372 255.223C189.359 260.254 189.463 264.167 186.59 266.273C186.876 266.481 187.292 266.897 187.474 267.183C190.529 264.843 190.542 260.553 190.555 255.223H189.372ZM196.236 262.529V263.348H200.292V262.529H196.236ZM196.236 264.037V264.843H200.37V264.037H196.236ZM196.054 265.61V266.468H200.513V265.61H196.054ZM197.835 261.593V265.831H198.797V261.593H197.835ZM195.638 258.33H196.626V259.37H195.638V258.33ZM194.923 257.654V260.033H197.38V257.654H194.923ZM198.706 258.33H199.707V259.344H198.706V258.33ZM197.991 257.641V260.033H200.448V257.641H197.991ZM196.405 261.021H196.314L195.495 262.022V267.092H196.405V261.879H200.552V261.021H196.405ZM196.067 260.02C195.69 261.047 195.04 262.061 194.364 262.763C194.52 262.958 194.806 263.413 194.897 263.595C195.638 262.776 196.405 261.502 196.873 260.293L196.067 260.02ZM197.601 260.384C197.822 260.748 198.043 261.229 198.108 261.554L198.914 261.177C198.849 260.865 198.602 260.397 198.368 260.059L197.601 260.384ZM194.442 255.782V256.679H196.678V255.782H194.442ZM196.223 255.041V257.42H197.198V255.041H196.223ZM198.212 255.041V257.42H199.2V255.041H198.212ZM198.641 255.769V256.679H200.812V255.769H198.641ZM202.086 258.642H204.855V259.695H202.086V258.642ZM202.086 260.683H204.855V261.762H202.086V260.683ZM202.086 256.588H204.855V257.641H202.086V256.588ZM201.046 255.496V262.854H205.947V255.496H201.046ZM203.802 262.425V265.649C203.802 266.65 203.984 266.975 204.816 266.975C204.985 266.975 205.323 266.975 205.492 266.975C206.194 266.975 206.454 266.52 206.519 264.674C206.259 264.583 205.817 264.427 205.635 264.245C205.609 265.805 205.57 265.961 205.362 265.961C205.284 265.961 205.037 265.961 204.959 265.961C204.79 265.961 204.777 265.922 204.777 265.636V262.425H203.802ZM202.099 262.451C201.982 264.115 201.657 265.454 200.11 266.208C200.357 266.403 200.682 266.832 200.825 267.118C202.58 266.156 203.009 264.518 203.152 262.451H202.099ZM210.341 260.8V267.131H211.511V261.749H216.763V267.131H217.998V260.8H210.341ZM207.728 259.058V260.046H219.259V259.058H207.728ZM208.664 257.316V258.265H218.518V257.316H208.664ZM211.134 262.49V263.309H217.27V262.49H211.134ZM211.134 264.076V264.882H217.27V264.076H211.134ZM211.004 265.675V266.637H217.283V265.675H211.004ZM217.686 255.106C215.554 255.509 211.68 255.678 208.495 255.691C208.612 255.951 208.716 256.354 208.742 256.627C211.966 256.64 215.905 256.458 218.427 255.99L217.686 255.106ZM212.265 256.081C211.602 258.928 210.12 261.775 207.364 263.322C207.611 263.556 207.975 264.011 208.144 264.284C211.082 262.555 212.668 259.526 213.539 256.341L212.265 256.081ZM222.275 262.659V263.738H230.686V262.659H222.275ZM222.873 259.786V260.878H230.114V259.786H222.873ZM220.988 265.662V266.767H232.077V265.662H220.988ZM225.811 260.254V266.273H227.098V260.254H225.811ZM222.938 255.405V256.549H227.033V255.405H222.938ZM225.785 255.405V256.094H226.136C227.449 257.914 229.62 259.773 231.804 260.8C231.986 260.462 232.389 259.955 232.636 259.695C230.504 258.85 228.32 257.147 227.15 255.405H225.785ZM225.993 255.405C224.81 257.069 222.405 258.967 220.39 259.864C220.676 260.124 220.988 260.553 221.157 260.852C223.185 259.799 225.603 257.81 226.89 256.029L225.993 255.405ZM236.315 257.719H242.607V258.434H236.315V257.719ZM236.315 256.263H242.607V256.965H236.315V256.263ZM235.132 255.47V259.24H243.842V255.47H235.132ZM233.715 259.929V260.917H245.22V259.929H233.715ZM236.614 262.386H242.386V263.4H236.614V262.386ZM235.431 261.515V264.271H243.621V261.515H235.431ZM238.889 263.803V265.948C238.889 266.091 238.837 266.13 238.655 266.143C238.473 266.156 237.823 266.156 237.199 266.13C237.342 266.403 237.498 266.793 237.563 267.092C238.473 267.092 239.11 267.092 239.552 266.949C239.994 266.806 240.124 266.559 240.124 265.987V263.803H238.889ZM240.995 265.246C242.152 265.701 243.647 266.429 244.388 266.936L245.233 266.156C244.427 265.636 242.919 264.96 241.788 264.57L240.995 265.246ZM236.653 264.518C235.899 265.116 234.625 265.675 233.481 266.039C233.754 266.234 234.183 266.663 234.391 266.91C235.509 266.455 236.9 265.714 237.771 264.973L236.653 264.518ZM238.538 259.448C238.811 259.812 239.084 260.332 239.175 260.657L240.319 260.254C240.189 259.916 239.903 259.448 239.617 259.097L238.538 259.448Z" fill="white"/>
<defs>
<linearGradient id="paint0_linear_58_321" x1="562.5" y1="290" x2="562.5" y2="580" gradientUnits="userSpaceOnUse">
<stop stop-color="#0361A0"/>
<stop offset="1" stop-color="#0361A0" stop-opacity="0"/>
</linearGradient>
</defs>
</svg>

<?xml version="1.0" encoding="utf-8"?>
<!-- Generator: Adobe Illustrator 26.5.0, SVG Export Plug-In . SVG Version: 6.00 Build 0)  -->
<svg version="1.1" id="圖層_1" xmlns="http://www.w3.org/2000/svg" xmlns:xlink="http://www.w3.org/1999/xlink" x="0px" y="0px"
	 viewBox="0 0 375 290" style="enable-background:new 0 0 375 290;" xml:space="preserve">
<style type="text/css">
	.st0{fill:#FFFFFF;}
</style>
<path class="st0" d="M138.5,256.3v9.1c0,0.3-0.1,0.4-0.4,0.4c-0.3,0-1.4,0-2.4,0c0.2,0.4,0.4,0.9,0.5,1.3c1.3,0,2.2,0,2.8-0.2
	c0.6-0.2,0.8-0.6,0.8-1.4v-9.2H138.5z M130.9,258.9v6h1.2v-6H130.9z M131.5,258.9v1.2h3.7v2.6h-3.7v1.2h4.9v-4.9H131.5z
	 M129.7,255.9v1.2h11.7v-1.2H129.7z M142.8,257.3v1.2h11.3v-1.2H142.8z M146.5,260.8v1.2h7.4v-1.2H146.5z M145.1,265.6v1.2h9.3v-1.2
	H145.1z M149.2,261.3v4.9h1.2v-4.9H149.2z M146.7,255c-0.5,3.7-1.7,8-4.4,10.4c0.2,0.2,0.6,0.7,0.8,1c3-2.7,4.2-7.1,4.9-11.2
	L146.7,255z M155.8,257.4v1.2h11.4v-1.2H155.8z M159.1,265.2v1.2h6.3v-1.2H159.1z M158.4,260.9v6.2h1.2v-5h5.4v5h1.3v-6.1H158.4z
	 M160.2,255c-0.7,3.2-2.1,6.7-4.8,8.6c0.2,0.2,0.6,0.7,0.8,1c3-2.1,4.5-5.7,5.3-9.3L160.2,255z M177.9,260.7v5.2
	c0,0.2-0.1,0.2-0.2,0.2c-0.2,0-0.8,0-1.4,0c0.1,0.3,0.3,0.7,0.3,1c0.9,0,1.5,0,1.9-0.2c0.4-0.2,0.5-0.4,0.5-1v-5.2H177.9z
	 M171.8,259v2.3h1.1V260h6.3v1.3h1.2V259H171.8z M173.1,255.5v4h1.1v-3h3.7v3h1.2v-4H173.1z M169.2,256c0.8,0.5,1.8,1.2,2.3,1.7
	l0.8-0.9c-0.5-0.4-1.6-1.1-2.3-1.6L169.2,256z M168.5,259.7c0.7,0.4,1.7,1,2.2,1.4l0.7-0.9c-0.5-0.4-1.5-1-2.2-1.4L168.5,259.7z
	 M168.9,266.1l1.1,0.7c0.6-1.2,1.3-2.7,1.8-4l-1-0.7C170.3,263.5,169.5,265.1,168.9,266.1z M173.6,260.7v1h4.8v-1H173.6z M173,260.7
	v1.9c0,1.2-0.1,2.8-1,3.9c0.3,0.1,0.8,0.5,1,0.7c1-1.3,1.2-3.2,1.2-4.6v-1.9H173z M174,264.4l0.4,0.9c1.1-0.2,2.6-0.6,4-0.9
	l-0.1-0.9C176.7,263.9,175.1,264.2,174,264.4z M174.4,263c1,0.1,2.2,0.5,2.8,0.7l0.4-0.8c-0.7-0.3-1.9-0.6-2.8-0.7L174.4,263z
	 M175.5,257.2v2.3h1V258h2v-0.8H175.5z M181.8,263.5v0.9h6v-0.9H181.8z M181.5,257.3v0.9h6.5v-0.9H181.5z M184.2,256.2v9.5h1.1v-9.5
	H184.2z M181.5,265.6l0.2,1.1c1.7-0.2,4-0.4,6.2-0.7l0-0.9C185.5,265.3,183.1,265.5,181.5,265.6z M182.9,261.2h3.9v0.8h-3.9V261.2z
	 M182.9,259.7h3.9v0.8h-3.9V259.7z M181.9,258.9v4h5.9v-4H181.9z M187.2,255.1c-1.4,0.3-3.7,0.5-5.6,0.6c0.1,0.2,0.2,0.6,0.3,0.9
	c1.9-0.1,4.3-0.3,5.9-0.6L187.2,255.1z M187.9,258v1.1h4.6V258H187.9z M192.1,258v0.3c-0.1,5.2-0.2,7-0.6,7.4
	c-0.1,0.2-0.2,0.2-0.5,0.2c-0.2,0-0.8,0-1.4-0.1c0.2,0.3,0.3,0.8,0.4,1.2c0.6,0,1.2,0,1.6,0c0.4-0.1,0.7-0.2,0.9-0.6
	c0.4-0.6,0.5-2.4,0.7-7.9c0-0.1,0-0.6,0-0.6H192.1z M189.4,255.2c0,5,0.1,8.9-2.8,11.1c0.3,0.2,0.7,0.6,0.9,0.9
	c3.1-2.3,3.1-6.6,3.1-12H189.4z M196.2,262.5v0.8h4.1v-0.8H196.2z M196.2,264v0.8h4.1V264H196.2z M196.1,265.6v0.9h4.5v-0.9H196.1z
	 M197.8,261.6v4.2h1v-4.2H197.8z M195.6,258.3h1v1h-1V258.3z M194.9,257.7v2.4h2.5v-2.4H194.9z M198.7,258.3h1v1h-1V258.3z
	 M198,257.6v2.4h2.5v-2.4H198z M196.4,261L196.4,261l-0.9,1v5.1h0.9v-5.2h4.1V261H196.4z M196.1,260c-0.4,1-1,2-1.7,2.7
	c0.2,0.2,0.4,0.6,0.5,0.8c0.7-0.8,1.5-2.1,2-3.3L196.1,260z M197.6,260.4c0.2,0.4,0.4,0.8,0.5,1.2l0.8-0.4c-0.1-0.3-0.3-0.8-0.5-1.1
	L197.6,260.4z M194.4,255.8v0.9h2.2v-0.9H194.4z M196.2,255v2.4h1V255H196.2z M198.2,255v2.4h1V255H198.2z M198.6,255.8v0.9h2.2
	v-0.9H198.6z M202.1,258.6h2.8v1.1h-2.8V258.6z M202.1,260.7h2.8v1.1h-2.8V260.7z M202.1,256.6h2.8v1.1h-2.8V256.6z M201,255.5v7.4
	h4.9v-7.4H201z M203.8,262.4v3.2c0,1,0.2,1.3,1,1.3c0.2,0,0.5,0,0.7,0c0.7,0,1-0.5,1-2.3c-0.3-0.1-0.7-0.2-0.9-0.4
	c0,1.6-0.1,1.7-0.3,1.7c-0.1,0-0.3,0-0.4,0c-0.2,0-0.2,0-0.2-0.3v-3.2H203.8z M202.1,262.5c-0.1,1.7-0.4,3-2,3.8
	c0.2,0.2,0.6,0.6,0.7,0.9c1.8-1,2.2-2.6,2.3-4.7H202.1z M210.3,260.8v6.3h1.2v-5.4h5.3v5.4h1.2v-6.3H210.3z M207.7,259.1v1h11.5v-1
	H207.7z M208.7,257.3v0.9h9.9v-0.9H208.7z M211.1,262.5v0.8h6.1v-0.8H211.1z M211.1,264.1v0.8h6.1v-0.8H211.1z M211,265.7v1h6.3v-1
	H211z M217.7,255.1c-2.1,0.4-6,0.6-9.2,0.6c0.1,0.3,0.2,0.7,0.2,0.9c3.2,0,7.2-0.2,9.7-0.6L217.7,255.1z M212.3,256.1
	c-0.7,2.8-2.1,5.7-4.9,7.2c0.2,0.2,0.6,0.7,0.8,1c2.9-1.7,4.5-4.8,5.4-7.9L212.3,256.1z M222.3,262.7v1.1h8.4v-1.1H222.3z
	 M222.9,259.8v1.1h7.2v-1.1H222.9z M221,265.7v1.1h11.1v-1.1H221z M225.8,260.3v6h1.3v-6H225.8z M222.9,255.4v1.1h4.1v-1.1H222.9z
	 M225.8,255.4v0.7h0.4c1.3,1.8,3.5,3.7,5.7,4.7c0.2-0.3,0.6-0.8,0.8-1.1c-2.1-0.8-4.3-2.5-5.5-4.3H225.8z M226,255.4
	c-1.2,1.7-3.6,3.6-5.6,4.5c0.3,0.3,0.6,0.7,0.8,1c2-1.1,4.4-3,5.7-4.8L226,255.4z M236.3,257.7h6.3v0.7h-6.3V257.7z M236.3,256.3
	h6.3v0.7h-6.3V256.3z M235.1,255.5v3.8h8.7v-3.8H235.1z M233.7,259.9v1h11.5v-1H233.7z M236.6,262.4h5.8v1h-5.8V262.4z M235.4,261.5
	v2.8h8.2v-2.8H235.4z M238.9,263.8v2.1c0,0.1-0.1,0.2-0.2,0.2c-0.2,0-0.8,0-1.5,0c0.1,0.3,0.3,0.7,0.4,1c0.9,0,1.5,0,2-0.1
	s0.6-0.4,0.6-1v-2.2H238.9z M241,265.2c1.2,0.5,2.7,1.2,3.4,1.7l0.8-0.8c-0.8-0.5-2.3-1.2-3.4-1.6L241,265.2z M236.7,264.5
	c-0.8,0.6-2,1.2-3.2,1.5c0.3,0.2,0.7,0.6,0.9,0.9c1.1-0.5,2.5-1.2,3.4-1.9L236.7,264.5z M238.5,259.4c0.3,0.4,0.5,0.9,0.6,1.2
	l1.1-0.4c-0.1-0.3-0.4-0.8-0.7-1.2L238.5,259.4z"/>
</svg>
